!!!OTL: Am Grabe einer Getaeuschten.
!!!OTL-incipit: SCHLAF SCHWESTER SANFT
!!!COM: J. R. Zumsteeg
!!!ARE: Europa, Mitteleuropa, Deutschland
!!!SCT: F1075
!!!TXL: @@DE
!!!YEM: Copyright 1995, estate of Helmut Schaffrath.
**kern	**text
*ICvox	*
*clefG2	*
*M3/8	*
*k[b-e-a-]	*
*c:	*
!LO:TX:a:t=Langſam.	!
!LO:TX:a:t=P:only the highest voice encoded:problem	!
{16b-L	1._Schlaf,
16a-J	.
=1	=1
4g	Schweſter,
16gL	.
16a-J	.
=2	=2
8b-L	ſanft
8a-J	.
8g	im
=3	=3
8fL	Er-
8gJ	.
8a-	-den-
=4	=4
8a-L	-ſchooß!
8gJ}	.
{8e-	du
=5	=5
4cc	biſt
16ee-L	des
16ccJ	.
=6	=6
(8b-L	mü-
16a-	.
16gJ)	.
(16fL	-den
16e-J)	.
=7	=7
8dL	Jammers
8a-J	.
8g	.
=8	=8
(8gL	los.
8fJ)}	.
{16fL	Wir
16b-J	.
=9	=9
4b-/	ſa-
8b/	-hen
=10	=10
(8bL	dei-
8ccJ)	.
8dd	-nen
=11	=11
(8ddL	Thränen
8ee-J)	.
16ffL	.
16ee-J	.
=12	=12
(8cc#L	ʒu,
8ddJ)}	.
{8b-	und
=13	=13
(8b-/L	wünſchen
8ccJ)	.
8dd-/	.
=14	=14
8cc/L	dir
8ddJ	.
8ee-	des
=15	=15
8e-L	Gra-
8a-J	.
8d	-bes
=16	=16
4e-;}	Ruh'.
=||	=||
!LO:TX:a:t=Etwas geſchwinder.	!
{8g	2._Nun
=17	=17
4cc/	na-
8b-/	-he
=18	=18
4a-	ſich
8a	der
=19	=19
4b-/	fal-
8a-	-ſche
=20	=20
4g}	Mann,
{8b-/	und
=21	=21
8b-/L	ſeh'
8gJ	.
8dd-	die
=22	=22
(8dd/L	blaſ-
8ccJ)	.
8b-/	-ſen
=23	=23
8b-/L	Wangen
8ccJ	.
8g	.
=24	=24
4a-}	an!
{8a-	und
=25	=25
4f	ſeh'
8f	dies
=26	=26
8gL	Herʒ,
8ccJ	.
8g	das
=27	=27
4f	oh-
8f	-ne
=28	=28
8g/L	Trug
8ddJ}	.
{8f	ihm
=29	=29
8g/L	noch
8ccJ	.
8b-/	im
=30	=30
8a-L	To-
8gJ	.
8f	-des-
=31	=31
8e-L	-kam-
8fJ	.
8d	-pfe
=32	=32
8c	ſchlug.
8r}	.
==	==
!!!AGN: Trauer -, Bregraebnis -, Trost - Lied
!!!ONB: ESAC (Essen Associative Code) Database: FINK
!!!AMT: simple triple
!!!AIN: vox
!!!EED: Helmut Schaffrath
!!!EEV: 1.0
!!!RDF**kern: > = above
!!!GTL: Trauer- Begraebniss- und Trostlieder
!!!URL-scan: https://www.digitale-sammlungen.de/en/view/bsb11144622?page=682
!!!ENC: Anna Maria Matuszewska
!!!EEV: 2024/08/09
*-	*-
